app/images/icons/robot.svg

<svg width="30" height="24" viewBox="0 0 30 24" fill="none" xmlns="http://www.w3.org/2000/svg">
<path d="M15 0C15.4375 0 15.7969 0.140625 16.0781 0.421875C16.3594 0.703125 16.5 1.0625 16.5 1.5V4.5H22.125C23.0938 4.53125 23.8906 4.85938 24.5156 5.48438C25.1406 6.10938 25.4688 6.90625 25.5 7.875V20.625C25.4688 21.5938 25.1406 22.3906 24.5156 23.0156C23.8906 23.6406 23.0938 23.9688 22.125 24H7.875C6.90625 23.9688 6.10938 23.6406 5.48438 23.0156C4.85938 22.3906 4.53125 21.5938 4.5 20.625V7.875C4.53125 6.90625 4.85938 6.10938 5.48438 5.48438C6.10938 4.85938 6.90625 4.53125 7.875 4.5H13.5V1.5C13.5 1.0625 13.6406 0.703125 13.9219 0.421875C14.2031 0.140625 14.5625 0 15 0ZM9.75 18C9.28125 18.0312 9.03125 18.2812 9 18.75C9.03125 19.2188 9.28125 19.4688 9.75 19.5H11.25C11.7188 19.4688 11.9688 19.2188 12 18.75C11.9688 18.2812 11.7188 18.0312 11.25 18H9.75ZM14.25 18C13.7812 18.0312 13.5312 18.2812 13.5 18.75C13.5312 19.2188 13.7812 19.4688 14.25 19.5H15.75C16.2188 19.4688 16.4688 19.2188 16.5 18.75C16.4688 18.2812 16.2188 18.0312 15.75 18H14.25ZM18.75 18C18.2812 18.0312 18.0312 18.2812 18 18.75C18.0312 19.2188 18.2812 19.4688 18.75 19.5H20.25C20.7188 19.4688 20.9688 19.2188 21 18.75C20.9688 18.2812 20.7188 18.0312 20.25 18H18.75ZM12.375 12C12.3438 11.2812 12.0312 10.7344 11.4375 10.3594C10.8125 10.0469 10.1875 10.0469 9.5625 10.3594C8.96875 10.7344 8.65625 11.2812 8.625 12C8.65625 12.7188 8.96875 13.2656 9.5625 13.6406C10.1875 13.9531 10.8125 13.9531 11.4375 13.6406C12.0312 13.2656 12.3438 12.7188 12.375 12ZM19.5 13.875C20.2188 13.8438 20.7656 13.5312 21.1406 12.9375C21.4531 12.3125 21.4531 11.6875 21.1406 11.0625C20.7656 10.4688 20.2188 10.1562 19.5 10.125C18.7812 10.1562 18.2344 10.4688 17.8594 11.0625C17.5469 11.6875 17.5469 12.3125 17.8594 12.9375C18.2344 13.5312 18.7812 13.8438 19.5 13.875ZM2.25 10.5H3V19.5H2.25C1.625 19.4688 1.09375 19.25 0.65625 18.8438C0.25 18.4062 0.03125 17.875 0 17.25V12.75C0.03125 12.125 0.25 11.5938 0.65625 11.1562C1.09375 10.75 1.625 10.5312 2.25 10.5ZM27.75 10.5C28.375 10.5312 28.9062 10.75 29.3438 11.1562C29.75 11.5938 29.9688 12.125 30 12.75V17.25C29.9688 17.875 29.75 18.4062 29.3438 18.8438C28.9062 19.25 28.375 19.4688 27.75 19.5H27V10.5H27.75Z" fill="#1D53C0"/>
</svg>

<svg width="30" height="24" fill="none" xmlns="http://www.w3.org/2000/svg"><path d="M15 0c.438 0 .797.14 1.078.422.281.281.422.64.422 1.078v3h5.625c.969.031 1.766.36 2.39.984.626.625.954 1.422.985 2.391v12.75c-.031.969-.36 1.766-.984 2.39-.625.626-1.422.954-2.391.985H7.875c-.969-.031-1.766-.36-2.39-.984-.626-.625-.954-1.422-.985-2.391V7.875c.031-.969.36-1.766.984-2.39.625-.626 1.422-.954 2.391-.985H13.5v-3c0-.438.14-.797.422-1.078C14.203.14 14.562 0 15 0zM9.75 18c-.469.031-.719.281-.75.75.031.469.281.719.75.75h1.5c.469-.031.719-.281.75-.75-.031-.469-.281-.719-.75-.75h-1.5zm4.5 0c-.469.031-.719.281-.75.75.031.469.281.719.75.75h1.5c.469-.031.719-.281.75-.75-.031-.469-.281-.719-.75-.75h-1.5zm4.5 0c-.469.031-.719.281-.75.75.031.469.281.719.75.75h1.5c.469-.031.719-.281.75-.75-.031-.469-.281-.719-.75-.75h-1.5zm-6.375-6c-.031-.719-.344-1.266-.938-1.64-.624-.313-1.25-.313-1.874 0-.594.374-.907.921-.938 1.64.031.719.344 1.266.938 1.64.624.313 1.25.313 1.874 0 .594-.374.907-.921.938-1.64zm7.125 1.875c.719-.031 1.266-.344 1.64-.938.313-.624.313-1.25 0-1.874-.374-.594-.921-.907-1.64-.938-.719.031-1.266.344-1.64.938-.313.624-.313 1.25 0 1.874.374.594.921.907 1.64.938zM2.25 10.5H3v9h-.75a2.446 2.446 0 01-1.594-.656A2.447 2.447 0 010 17.25v-4.5c.031-.625.25-1.156.656-1.594A2.446 2.446 0 012.25 10.5zm25.5 0c.625.031 1.156.25 1.594.656.406.438.625.969.656 1.594v4.5a2.446 2.446 0 01-.656 1.594 2.446 2.446 0 01-1.594.656H27v-9h.75z" fill="#1D53C0"/></svg>
